src/box.svg

<?xml version="1.0" encoding="UTF-8" standalone="no"?>
<svg width="20px" height="20px" viewBox="0 0 20 20" version="1.1" xmlns="http://www.w3.org/2000/svg" xmlns:xlink="http://www.w3.org/1999/xlink">
    <!-- Generator: Sketch 3.7.2 (28276) - http://www.bohemiancoding.com/sketch -->
    <title>box</title>
    <desc>Created with Sketch.</desc>
    <defs></defs>
    <g id="Page-1" stroke="none" stroke-width="1" fill="none" fill-rule="evenodd">
        <g id="box" fill="#000000">
            <path d="M0,2 C0,0.8954305 0.898212381,0 1.99079514,0 L18.0092049,0 C19.1086907,0 20,0.887729645 20,2 L20,4 L0,4 L0,2 Z M1,5 L19,5 L19,18.0081158 C19,19.1082031 18.1073772,20 17.0049107,20 L2.99508929,20 C1.8932319,20 1,19.1066027 1,18.0081158 L1,5 Z M7,7 L13,7 L13,9 L7,9 L7,7 Z" id="Combined-Shape"></path>
        </g>
    </g>
</svg>

<svg xmlns="http://www.w3.org/2000/svg" viewBox="0 0 20 20"><path d="M0 2C0 .9.9 0 2 0h16a2 2 0 0 1 2 2v2H0V2zm1 3h18v13a2 2 0 0 1-2 2H3a2 2 0 0 1-2-2V5zm6 2v2h6V7H7z"/></svg>
